X:23
T:Otter's Holt, The
M:4/4
L:1/8
K:Bminor
e|"Bm"fBBA FEFA|"A"ABFB ABde|"Bm"fBBA FEFA|"G"Bd"A"cA "Bm"B2 de|!
"Bm"fBBA FEFA|"A"ABFB ABde|"Bm"fbaf "F#m"efdf|"A"edBA"Bm"B3:|!
A|"D"d2 fd Adfa|"Em"bfaf "A"efdB|"D"d2 fd Adfa|"Em"bfaf "A"e3 f|!
"D" d2 fd Adfa|"Em"bfaf "A"efde|"G"fBBA "F#m"FEFA|"A"BdcA "Bm"B3:|

